X:12
T:Waltz
C:? (possibly Simon Garbutt, but most probably not!)
M:3/4
L:1/8
Q:280
K:D
FE|DF AF dA|B3 G GF|EG BG eB|c4 Bc|de fe dc| B2 G2 GF|EF GA GF|E4 FE|
DF AF dA|B3 G GF|EG BG eB|c4 Bc|df dc BA|Bf BA GF|GB GF ED|E4 de||
f2 fa gf|ed cd e2|d2 dA FA|B4 cd|AF DF Ad|BG EG Bd|cB Ac ec|d4 dc|
B2 GB dB|A2 FA dA|G2 EG BG|F6|FD FA dA|BG EG Bd|cA ce ge|d6||
